X: 29928
T: O'Sullivan's March
R: jig
M: 6/8
K: Gmajor
|:D|GBA ABd|edB A2 G|GBA B2 A|BGG GED|
GBA ABd|edB A2 G|GBA B2 A|BGG G2:|
|:d|edg edg|edg edB|dBe dBe|dBG ABd|
gee fdd|edB A2 G|GBA B2 A|BGG G2:|

